X: 3843
T: Black Knife, The
R: jig
M: 6/8
K: Eminor
|:E2e e2B|dBG AFD|E2e e2d|efg f2B|
E2e e2B|dBG AFD|~G3 ~A3|1 BGE E2D:|2 BGE E2A||
|:BDE EFG|BcB AGA|BGE EFG|~B3 ~A3|
[1 BDE EFG|BcB AFA|BeB AdA|GBG FGA:|
[2 BeB AdA|GAB AFA|Bdf fdB|AFD E2D||

